target/64x64/mimetypes/text-x-readme.svg

<svg width="64" height="64" version="1.1" xmlns="http://www.w3.org/2000/svg">
 <path d="m12.75 5c-1.5235 0-2.75 1.2488-2.75 2.8v50.4c0 1.55008 1.2265 2.8 2.75 2.8h38.5c1.5224 0 2.75-1.24992 2.75-2.8v-35.2l-14-4-4-14z" style="opacity:.2"/>
 <path d="m12.75 4c-1.5235 0-2.75 1.2488-2.75 2.8v50.4c0 1.55008 1.2265 2.8 2.75 2.8h38.5c1.5224 0 2.75-1.24992 2.75-2.8v-35.2l-14-4-4-14z" style="fill:#e4e4e4"/>
 <path d="m54 23-18-18v15.1875c0 1.55925 1.2555 2.8125 2.8125 2.8125z" style="opacity:.2"/>
 <path d="m54 22-18-18v15.1875c0 1.55925 1.2555 2.8125 2.8125 2.8125z" style="fill:#fafafa"/>
 <path d="m12.75 4c-1.5235 0-2.75 1.2495812-2.75 2.8007812v1c0-1.5511999 1.2265-2.8007812 2.75-2.8007812h23.25v-1h-23.25z" style="fill:#ffffff;opacity:.2"/>
 <path d="m32 25c-1.662 0-3 1.338-3 3v13c0 1.662 1.338 3 3 3s3-1.338 3-3v-13c0-1.662-1.338-3-3-3zm0 23c-1.662 0-3 1.338-3 3s1.338 3 3 3 3-1.338 3-3-1.338-3-3-3z" style="fill:#d74c4c"/>
</svg>

<svg xmlns="http://www.w3.org/2000/svg" width="64" height="64" version="1.1">
 <path style="opacity:0.2" d="M 12.75,5 C 11.2265,5 10,6.2488 10,7.8 v 50.4 c 0,1.55008 1.2265,2.8 2.75,2.8 h 38.5 C 52.7724,61 54,59.75008 54,58.2 V 23 L 40,19 36,5 Z"/>
 <path style="fill:#e4e4e4" d="M 12.75,4 C 11.2265,4 10,5.2488 10,6.8 v 50.4 c 0,1.55008 1.2265,2.8 2.75,2.8 h 38.5 C 52.7724,60 54,58.75008 54,57.2 V 22 L 40,18 36,4 Z"/>
 <path style="opacity:0.2" d="M 54,23 36,5 V 20.1875 C 36,21.74675 37.2555,23 38.8125,23 Z"/>
 <path style="fill:#fafafa" d="M 54,22 36,4 V 19.1875 C 36,20.74675 37.2555,22 38.8125,22 Z"/>
 <path style="opacity:0.2;fill:#ffffff" d="M 12.75 4 C 11.2265 4 10 5.2495812 10 6.8007812 L 10 7.8007812 C 10 6.2495813 11.2265 5 12.75 5 L 36 5 L 36 4 L 12.75 4 z"/>
 <path style="fill:#d74c4c" d="m 30,28 v 18 h 4 V 28 Z m 0,22 v 4 h 4 v -4 z"/>
</svg>
